website/src/static/table/emptytable.svg

<svg width="144" height="80" viewBox="0 0 144 80" fill="none" xmlns="http://www.w3.org/2000/svg">
<rect width="144" height="80" fill="white"/>
<path d="M8.3 19.5H57.7C57.8689 19.5 58.0572 19.5884 58.2199 19.8044C58.3831 20.021 58.5 20.3459 58.5 20.7333V56.2667C58.5 56.6541 58.3831 56.9791 58.2199 57.1957C58.0572 57.4116 57.8689 57.5 57.7 57.5H8.3C8.13113 57.5 7.94278 57.4116 7.78012 57.1957C7.61693 56.9791 7.5 56.6541 7.5 56.2667V20.7333C7.5 20.3459 7.61693 20.021 7.78012 19.8044C7.94278 19.5884 8.13113 19.5 8.3 19.5Z" stroke="#A9ABB6"/>
<path fill-rule="evenodd" clip-rule="evenodd" d="M58.7833 20.0862V23.6738H7V20.0862C7 19.6108 7.60472 19 8.08333 19H57.7C58.1786 19 58.7833 19.6108 58.7833 20.0862ZM56.0903 22.8697C56.6031 22.8697 57.0188 22.4434 57.0188 21.9175C57.0054 21.405 56.5901 21.0003 56.0903 21.0128C55.5905 21.0003 55.1751 21.405 55.1617 21.9175C55.1617 22.4434 55.5774 22.8697 56.0903 22.8697ZM54.2335 21.9175C54.2335 22.4434 53.8178 22.8697 53.305 22.8697C52.7921 22.8697 52.3764 22.4434 52.3764 21.9175C52.3898 21.405 52.8052 21.0003 53.305 21.0128C53.8048 21.0003 54.2201 21.405 54.2335 21.9175ZM50.5197 22.8697C51.0325 22.8697 51.4482 22.4434 51.4482 21.9175C51.4348 21.405 51.0194 21.0003 50.5197 21.0128C50.0199 21.0003 49.6045 21.405 49.5911 21.9175C49.5911 22.4434 50.0068 22.8697 50.5197 22.8697Z" fill="#A9ABB6"/>
<rect x="12.1992" y="34.5996" width="13.8667" height="1.3" rx="0.65" fill="#A9ABB6"/>
<rect x="12.1992" y="38.9341" width="19.0667" height="1.3" rx="0.65" fill="#A9ABB6"/>
<rect x="12.1992" y="41.5332" width="10.4" height="1.3" rx="0.65" fill="#A9ABB6"/>
<rect x="36.5742" y="31.0254" width="17.1167" height="17.1167" stroke="#A9ABB6"/>
<path d="M50.5501 36.3327C50.5501 37.091 49.7918 37.8494 49.0334 37.8494C48.0584 37.8494 47.3001 37.091 47.3001 36.3327C47.3001 35.3577 48.0584 34.5994 49.0334 34.5994C49.7918 34.5994 50.5501 35.3577 50.5501 36.3327Z" fill="#A9ABB6"/>
<path d="M46.4323 43.0489L48.3823 40.0156L51.6323 44.3489H38.6323L42.9657 37.8489L46.4323 43.0489Z" fill="#A9ABB6"/>
<path d="M50.5501 36.3327C50.5501 37.091 49.7918 37.8494 49.0334 37.8494C48.0584 37.8494 47.3001 37.091 47.3001 36.3327C47.3001 35.3577 48.0584 34.5994 49.0334 34.5994C49.7918 34.5994 50.5501 35.3577 50.5501 36.3327Z" stroke="#A9ABB6"/>
<path d="M46.4323 43.0489L48.3823 40.0156L51.6323 44.3489H38.6323L42.9657 37.8489L46.4323 43.0489Z" stroke="#A9ABB6"/>
<rect x="67" y="27" width="70" height="8" rx="4" fill="#E0E1E9" fill-opacity="0.8"/>
<rect x="67" y="43" width="42" height="8" rx="4" fill="#E0E1E9" fill-opacity="0.8"/>
</svg>

<svg xmlns="http://www.w3.org/2000/svg" width="144" height="80" fill="none"><path fill="#fff" d="M0 0h144v80H0z"/><path stroke="#A9ABB6" d="M8.3 19.5h49.4c.169 0 .357.088.52.304.163.217.28.542.28.93v35.533c0 .387-.117.712-.28.929-.163.216-.351.304-.52.304H8.3c-.169 0-.357-.088-.52-.304-.163-.217-.28-.542-.28-.93V20.734c0-.387.117-.712.28-.929.163-.216.351-.304.52-.304Z"/><path fill="#A9ABB6" fill-rule="evenodd" d="M58.783 20.086v3.588H7v-3.588C7 19.611 7.605 19 8.083 19H57.7c.479 0 1.083.61 1.083 1.086ZM56.09 22.87a.94.94 0 0 0 .929-.953.917.917 0 0 0-.929-.904.917.917 0 0 0-.928.904.94.94 0 0 0 .928.953Zm-1.857-.953a.94.94 0 0 1-.928.953.94.94 0 0 1-.929-.953.917.917 0 0 1 .929-.904c.5-.013.915.392.928.904Zm-3.713.953a.94.94 0 0 0 .928-.953.917.917 0 0 0-.928-.904.917.917 0 0 0-.929.904.94.94 0 0 0 .929.953Z" clip-rule="evenodd"/><rect width="13.867" height="1.3" x="12.199" y="34.6" fill="#A9ABB6" rx=".65"/><rect width="19.067" height="1.3" x="12.199" y="38.934" fill="#A9ABB6" rx=".65"/><rect width="10.4" height="1.3" x="12.199" y="41.533" fill="#A9ABB6" rx=".65"/><path stroke="#A9ABB6" d="M36.574 31.025h17.117v17.117H36.574z"/><path fill="#A9ABB6" d="M50.55 36.333c0 .758-.758 1.516-1.517 1.516-.975 0-1.733-.758-1.733-1.516 0-.975.758-1.734 1.733-1.734.759 0 1.517.759 1.517 1.734ZM46.432 43.049l1.95-3.033 3.25 4.333h-13l4.334-6.5 3.466 5.2Z"/><path stroke="#A9ABB6" d="M50.55 36.333c0 .758-.758 1.516-1.517 1.516-.975 0-1.733-.758-1.733-1.516 0-.975.758-1.734 1.733-1.734.759 0 1.517.759 1.517 1.734ZM46.432 43.049l1.95-3.033 3.25 4.333h-13l4.334-6.5 3.466 5.2Z"/><rect width="70" height="8" x="67" y="27" fill="#E0E1E9" fill-opacity=".8" rx="4"/><rect width="42" height="8" x="67" y="43" fill="#E0E1E9" fill-opacity=".8" rx="4"/></svg>
